Papirus-nordic/24x24/places/folder-red-backup.svg

<svg xmlns="http://www.w3.org/2000/svg" width="24" height="24" version="1">
 <g transform="translate(1,1)">
  <rect style="opacity:.2" width="20" height="12" x="1" y="8.5" rx="1" ry="1"/>
  <path style="fill:#ae4f58" d="m1 16c0 0.554 0.446 1 1 1h18c0.554 0 1-0.446 1-1v-11c0-0.554-0.446-1-1-1h-10v-1c0-0.554-0.446-1-1-1h-7c-0.554 0-1 0.446-1 1"/>
  <rect style="opacity:.2" width="20" height="12" x="1" y="7.5" rx="1" ry="1"/>
  <rect style="fill:#e4e4e4" width="16" height="8" x="3" y="6" rx="1" ry="1"/>
  <rect style="fill:#bf616a" width="20" height="12" x="1" y="8" rx="1" ry="1"/>
  <path style="opacity:.1;fill:#ffffff" d="m2 2c-0.554 0-1 0.446-1 1v0.5c0-0.554 0.446-1 1-1h7c0.554 0 1 0.446 1 1v-0.5c0-0.554-0.446-1-1-1zm8 2v0.5h10c0.554 0 1 0.446 1 1v-0.5c0-0.554-0.446-1-1-1z"/>
  <path style="fill:#974a4d" d="m11 10a4 4 0 0 0 -4 4h-1l1.4492188 2 1.5507812-2h-1a3 3 0 0 1 3 -3 3 3 0 0 1 3 3 3 3 0 0 1 -3 3 3 3 0 0 1 -2.1191406 -0.880859l-0.7070313 0.707031a4 4 0 0 0 2.8261719 1.173828 4 4 0 0 0 4 -4 4 4 0 0 0 -4 -4zm-1 2v2l1 2h1l-1-2v-2z"/>
 </g>
</svg>

<svg xmlns="http://www.w3.org/2000/svg" width="24" height="24" version="1"><g transform="translate(1 1)"><rect width="20" height="12" x="1" y="8.5" rx="1" ry="1" opacity=".2"/><path d="M1 16c0 .554.446 1 1 1h18c.554 0 1-.446 1-1V5c0-.554-.446-1-1-1H10V3c0-.554-.446-1-1-1H2c-.554 0-1 .446-1 1" fill="#ae4f58"/><rect width="20" height="12" x="1" y="7.5" rx="1" ry="1" opacity=".2"/><rect width="16" height="8" x="3" y="6" rx="1" ry="1" fill="#e4e4e4"/><rect width="20" height="12" x="1" y="8" rx="1" ry="1" fill="#bf616a"/><path d="M2 2c-.554 0-1 .446-1 1v.5c0-.554.446-1 1-1h7c.554 0 1 .446 1 1V3c0-.554-.446-1-1-1zm8 2v.5h10c.554 0 1 .446 1 1V5c0-.554-.446-1-1-1z" opacity=".1" fill="#fff"/><path d="M11 10a4 4 0 0 0-4 4H6l1.45 2L9 14H8a3 3 0 0 1 3-3 3 3 0 0 1 3 3 3 3 0 0 1-3 3 3 3 0 0 1-2.12-.88l-.706.706A4 4 0 0 0 11 18a4 4 0 0 0 4-4 4 4 0 0 0-4-4zm-1 2v2l1 2h1l-1-2v-2z" fill="#974a4d"/></g></svg>
